milky.CUBE
#Created by: Adobe Photoshop Export Color Lookup Plugin
TITLE "milky"
#LUT size
LUT_3D_SIZE 32
#data domain
DOMAIN_MIN 0.0 0.0 0.0
DOMAIN_MAX 1.0 1.0 1.0
#LUT data points
0.037384 0.081116 0.130402
0.042328 0.082703 0.131805
0.047607 0.084320 0.133240
0.053680 0.085938 0.134644
0.060913 0.087616 0.136139
0.069641 0.089294 0.137604
0.080200 0.091095 0.139221
0.093018 0.092957 0.140869
0.108429 0.094971 0.142639
0.126678 0.097015 0.144440
0.148071 0.099213 0.146362
0.172913 0.101562 0.148438
0.201385 0.104095 0.150696
0.233856 0.106750 0.153015
0.270416 0.109589 0.155518
0.310455 0.112610 0.158203
0.352905 0.115875 0.161072
0.396240 0.119293 0.164093
0.439545 0.122955 0.167328
0.481628 0.126892 0.170776
0.521484 0.131104 0.174500
0.558533 0.135498 0.178375
0.592957 0.140228 0.182556
0.624969 0.145233 0.186981
0.654663 0.150543 0.191681
0.682220 0.156158 0.196625
0.707794 0.162109 0.201874
0.731537 0.168396 0.207397
0.753571 0.175018 0.213257
0.774078 0.181976 0.219391
0.793060 0.189301 0.225861
0.810791 0.197021 0.232666
0.039032 0.085938 0.131805
0.042328 0.085938 0.131805
0.047607 0.087616 0.133240
0.053680 0.089294 0.134644
0.060913 0.091095 0.136139
0.069641 0.092957 0.137604
0.080200 0.094971 0.139221
0.093018 0.096985 0.140869
0.108429 0.099213 0.142639
0.126678 0.101562 0.144440
0.148071 0.104095 0.146362
0.172913 0.106750 0.148438
0.201385 0.109589 0.150696
0.233856 0.112610 0.153015
0.270416 0.115875 0.155518
0.310455 0.119263 0.158203
0.352905 0.122955 0.161072
0.396240 0.126892 0.164093
0.439545 0.131104 0.167328
0.481628 0.135529 0.170776
0.521484 0.140228 0.174500
0.558533 0.145233 0.178375
0.592957 0.150513 0.182556
0.624969 0.156158 0.186981
0.654663 0.162140 0.191681
0.682220 0.168396 0.196625
0.707794 0.175049 0.201874
0.731537 0.182037 0.207397
0.753571 0.189301 0.213257
0.774078 0.196991 0.219391
0.793060 0.205139 0.225861
0.810791 0.213593 0.232666
0.040710 0.091095 0.133240
0.044067 0.091095 0.133240
0.047607 0.091095 0.133240
0.053680 0.092957 0.134644
0.060913 0.094971 0.136139
0.069641 0.097015 0.137604
0.080200 0.099213 0.139221
0.093018 0.101562 0.140869
0.108429 0.104095 0.142639
0.126678 0.106750 0.144440
0.148071 0.109589 0.146362
0.172913 0.112610 0.148438
0.201385 0.115875 0.150696
0.233856 0.119293 0.153015
0.270416 0.122955 0.155518
0.310455 0.126892 0.158203
0.352905 0.131104 0.161072
0.396240 0.135498 0.164093
0.439545 0.140228 0.167328
0.481628 0.145233 0.170776
0.521484 0.150543 0.174500
0.558533 0.156158 0.178375
0.592957 0.162079 0.182556
0.624969 0.168396 0.186981
0.654663 0.175018 0.191681
0.682220 0.182007 0.196625
0.707794 0.189301 0.201874
0.731537 0.196991 0.207397
0.753571 0.205200 0.213257
0.774078 0.213531 0.219391
0.793060 0.222443 0.225861
0.810791 0.231689 0.232666
0.042328 0.097015 0.134644
0.045746 0.097015 0.134644
0.049530 0.097015 0.134644
0.053680 0.097015 0.134644
0.060913 0.099213 0.136139
0.069641 0.101562 0.137604
0.080200 0.104095 0.139221
0.093018 0.106750 0.140869
0.108429 0.109589 0.142639
0.126678 0.112610 0.144440
0.148071 0.115875 0.146362
0.172913 0.119293 0.148438
0.201385 0.122955 0.150696
0.233856 0.126892 0.153015
0.270416 0.131104 0.155518
0.310455 0.135498 0.158203
0.352905 0.140228 0.161072
0.396240 0.145233 0.164093
0.439545 0.150543 0.167328
0.481628 0.156158 0.170776
0.521484 0.162109 0.174500
0.558533 0.168396 0.178375
0.592957 0.175049 0.182556
0.624969 0.181976 0.186981
0.654663 0.189331 0.191681
0.682220 0.197052 0.196625
0.707794 0.205139 0.201874
0.731537 0.213593 0.207397
0.753571 0.222473 0.213257
0.774078 0.231781 0.219391
0.793060 0.241455 0.225861
0.810791 0.251526 0.232666
0.044067 0.104095 0.136139
0.047607 0.104095 0.136139
0.051575 0.104095 0.136139
0.055908 0.104095 0.136139
0.060913 0.104095 0.136139
0.069641 0.106750 0.137604
0.080200 0.109589 0.139221
0.093018 0.112610 0.140869
0.108429 0.115875 0.142639
0.126678 0.119293 0.144440
0.148071 0.122925 0.146362
0.172913 0.126892 0.148438
0.201385 0.131073 0.150696
0.233856 0.135498 0.153015
0.270416 0.140198 0.155518
0.310455 0.145233 0.158203
0.352905 0.150543 0.161072
0.396240 0.156158 0.164093
0.439545 0.162109 0.167328
0.481628 0.168396 0.170776
0.521484 0.175018 0.174500
0.558533 0.181976 0.178375
0.592957 0.189331 0.182556
0.624969 0.196991 0.186981
0.654663 0.205139 0.191681
0.682220 0.213562 0.196625
0.707794 0.222443 0.201874
0.731537 0.231781 0.207397
0.753571 0.241425 0.213257
0.774078 0.251556 0.219391
0.793060 0.262085 0.225861
0.810791 0.273285 0.232666
0.045746 0.112610 0.137604
0.049530 0.112610 0.137604
0.053680 0.112610 0.137604
0.058319 0.112610 0.137604
0.063629 0.112610 0.137604
0.069641 0.112610 0.137604
0.080200 0.115845 0.139221
0.093018 0.119293 0.140869
0.108429 0.122955 0.142639
0.126678 0.126892 0.144440
0.148071 0.131104 0.146362
0.172913 0.135498 0.148438
0.201385 0.140228 0.150696
0.233856 0.145233 0.153015
0.270416 0.150543 0.155518
0.310455 0.156128 0.158203
0.352905 0.162109 0.161072
0.396240 0.168396 0.164093
0.439545 0.175018 0.167328
0.481628 0.182007 0.170776
0.521484 0.189331 0.174500
0.558533 0.196991 0.178375
0.592957 0.205109 0.182556
0.624969 0.213562 0.186981
0.654663 0.222443 0.191681
0.682220 0.231689 0.196625
0.707794 0.241455 0.201874
0.731537 0.251526 0.207397
0.753571 0.262054 0.213257
0.774078 0.273132 0.219391
0.793060 0.284668 0.225861
0.810791 0.296631 0.232666
0.047607 0.122955 0.139221
0.051575 0.122955 0.139221
0.055908 0.122955 0.139221
0.060913 0.122955 0.139221
0.066528 0.122955 0.139221
0.072937 0.122955 0.139221
0.080200 0.122955 0.139221
0.093018 0.126892 0.140869
0.108429 0.131104 0.142639
0.126678 0.135498 0.144440
0.148071 0.140228 0.146362
0.172913 0.145233 0.148438
0.201385 0.150543 0.150696
0.233856 0.156128 0.153015
0.270416 0.162079 0.155518
0.310455 0.168304 0.158203
0.352905 0.175018 0.161072
0.396240 0.182007 0.164093
0.439545 0.189301 0.167328
0.481628 0.196991 0.170776
0.521484 0.205139 0.174500
0.558533 0.213562 0.178375
0.592957 0.222443 0.182556
0.624969 0.231689 0.186981
0.654663 0.241425 0.191681
0.682220 0.251556 0.196625
0.707794 0.262054 0.201874
0.731537 0.273132 0.207397
0.753571 0.284668 0.213257
0.774078 0.296417 0.219391
0.793060 0.308838 0.225861
0.810791 0.321716 0.232666
0.049530 0.135498 0.140869
0.053650 0.135498 0.140869
0.058319 0.135498 0.140869
0.063629 0.135498 0.140869
0.069641 0.135498 0.140869
0.076447 0.135498 0.140869
0.084229 0.135498 0.140869
0.093018 0.135498 0.140869
0.108429 0.140228 0.142639
0.126678 0.145233 0.144440
0.148071 0.150513 0.146362
0.172913 0.156158 0.148438
0.201385 0.162109 0.150696
0.233856 0.168427 0.153015
0.270416 0.175018 0.155518
0.310455 0.181976 0.158203
0.352905 0.189331 0.161072
0.396240 0.196991 0.164093
0.439545 0.205109 0.167328
0.481628 0.213623 0.170776
0.521484 0.222504 0.174500
0.558533 0.231689 0.178375
0.592957 0.241364 0.182556
0.624969 0.251617 0.186981
0.654663 0.262177 0.191681
0.682220 0.273163 0.196625
0.707794 0.284668 0.201874
0.731537 0.296600 0.207397
0.753571 0.308960 0.213257
0.774078 0.321716 0.219391
0.793060 0.334778 0.225861
0.810791 0.348083 0.232666
0.051575 0.150543 0.142639
0.055908 0.150543 0.142639
0.060913 0.150543 0.142639
0.066528 0.150543 0.142639
0.072968 0.150543 0.142639
0.080200 0.150543 0.142639
0.088531 0.150543 0.142639
0.097870 0.150543 0.142639
0.108429 0.150543 0.142639
0.126678 0.156158 0.144440
0.148071 0.162109 0.146362
0.172913 0.168396 0.148438
0.201385 0.175049 0.150696
0.233856 0.182007 0.153015
0.270416 0.189331 0.155518
0.310455 0.197021 0.158203
0.352905 0.205139 0.161072
0.396240 0.213562 0.164093
0.439545 0.222412 0.167328
0.481628 0.231781 0.170776
0.521484 0.241364 0.174500
0.558533 0.251526 0.178375
0.592957 0.262054 0.182556
0.624969 0.273193 0.186981
0.654663 0.284546 0.191681
0.682220 0.296600 0.196625
0.707794 0.308838 0.201874
0.731537 0.321716 0.207397
0.753571 0.334686 0.213257
0.774078 0.348053 0.219391
0.793060 0.361633 0.225861
0.810791 0.375488 0.232666
0.053680 0.168396 0.144440
0.058319 0.168396 0.144440
0.063629 0.168396 0.144440
0.069641 0.168396 0.144440
0.076447 0.168396 0.144440
0.084229 0.168396 0.144440
0.093018 0.168396 0.144440
0.102997 0.168396 0.144440
0.114166 0.168396 0.144440
0.126678 0.168396 0.144440
0.148071 0.175018 0.146362
0.172913 0.181976 0.148438
0.201385 0.189331 0.150696
0.233856 0.197021 0.153015
0.270416 0.205078 0.155518
0.310455 0.213623 0.158203
0.352905 0.222473 0.161072
0.396240 0.231689 0.164093
0.439545 0.241425 0.167328
0.481628 0.251556 0.170776
0.521484 0.262085 0.174500
0.558533 0.273132 0.178375
0.592957 0.284668 0.182556
0.624969 0.296600 0.186981
0.654663 0.308960 0.191681
0.682220 0.321716 0.196625
0.707794 0.334747 0.201874
0.731537 0.348053 0.207397
0.753571 0.361755 0.213257
0.774078 0.375458 0.219391
0.793060 0.389526 0.225861
0.810791 0.403534 0.232666
0.055908 0.189301 0.146362
0.060913 0.189301 0.146362
0.066528 0.189301 0.146362
0.072968 0.189301 0.146362
0.080170 0.189301 0.146362
0.088531 0.189301 0.146362
0.097870 0.189301 0.146362
0.108398 0.189301 0.146362
0.120270 0.189301 0.146362
0.133453 0.189301 0.146362
0.148071 0.189301 0.146362
0.172913 0.197021 0.148438
0.201385 0.205078 0.150696
0.233856 0.213623 0.153015
0.270416 0.222473 0.155518
0.310455 0.231750 0.158203
0.352905 0.241455 0.161072
0.396240 0.251526 0.164093
0.439545 0.262054 0.167328
0.481628 0.273193 0.170776
0.521484 0.284668 0.174500
0.558533 0.296448 0.178375
0.592957 0.308960 0.182556
0.624969 0.321716 0.186981
0.654663 0.334778 0.191681
0.682220 0.347992 0.196625
0.707794 0.361633 0.201874
0.731537 0.375488 0.207397
0.753571 0.389526 0.213257
0.774078 0.403473 0.219391
0.793060 0.417603 0.225861
0.810791 0.431885 0.232666
0.058319 0.213593 0.148438
0.063629 0.213593 0.148438
0.069641 0.213593 0.148438
0.076447 0.213593 0.148438
0.084229 0.213593 0.148438
0.093018 0.213593 0.148438
0.102997 0.213593 0.148438
0.114166 0.213593 0.148438
0.126678 0.213593 0.148438
0.140564 0.213593 0.148438
0.155945 0.213593 0.148438
0.172913 0.213593 0.148438
0.201385 0.222473 0.150696
0.233856 0.231750 0.153015
0.270416 0.241364 0.155518
0.310455 0.251556 0.158203
0.352905 0.262115 0.161072
0.396240 0.273132 0.164093
0.439545 0.284637 0.167328
0.481628 0.296539 0.170776
0.521484 0.308990 0.174500
0.558533 0.321533 0.178375
0.592957 0.334747 0.182556
0.624969 0.348083 0.186981
0.654663 0.361664 0.191681
0.682220 0.375458 0.196625
0.707794 0.389465 0.201874
0.731537 0.403656 0.207397
0.753571 0.417633 0.213257
0.774078 0.431976 0.219391
0.793060 0.446045 0.225861
0.810791 0.460114 0.232666
0.060913 0.241425 0.150696
0.066528 0.241425 0.150696
0.072968 0.241425 0.150696
0.080200 0.241425 0.150696
0.088501 0.241425 0.150696
0.097870 0.241425 0.150696
0.108429 0.241425 0.150696
0.120270 0.241425 0.150696
0.133484 0.241425 0.150696
0.148102 0.241425 0.150696
0.164185 0.241425 0.150696
0.182007 0.241425 0.150696
0.201385 0.241425 0.150696
0.233856 0.251587 0.153015
0.270416 0.262085 0.155518
0.310455 0.273163 0.158203
0.352905 0.284668 0.161072
0.396240 0.296539 0.164093
0.439545 0.308960 0.167328
0.481628 0.321625 0.170776
0.521484 0.334686 0.174500
0.558533 0.347992 0.178375
0.592957 0.361664 0.182556
0.624969 0.375488 0.186981
0.654663 0.389526 0.191681
0.682220 0.403534 0.196625
0.707794 0.417603 0.201874
0.731537 0.431885 0.207397
0.753571 0.446014 0.213257
0.774078 0.460205 0.219391
0.793060 0.474152 0.225861
0.810791 0.488190 0.232666
0.063629 0.273163 0.153015
0.069641 0.273163 0.153015
0.076447 0.273163 0.153015
0.084229 0.273163 0.153015
0.093018 0.273163 0.153015
0.102997 0.273163 0.153015
0.114136 0.273163 0.153015
0.126709 0.273163 0.153015
0.140625 0.273163 0.153015
0.155945 0.273163 0.153015
0.172943 0.273163 0.153015
0.191498 0.273163 0.153015
0.211792 0.273163 0.153015
0.233856 0.273163 0.153015
0.270416 0.284546 0.155518
0.310455 0.296539 0.158203
0.352905 0.308960 0.161072
0.396240 0.321594 0.164093
0.439545 0.334747 0.167328
0.481628 0.348053 0.170776
0.521484 0.361664 0.174500
0.558533 0.375549 0.178375
0.592957 0.389404 0.182556
0.624969 0.403534 0.186981
0.654663 0.417755 0.191681
0.682220 0.431915 0.196625
0.707794 0.446045 0.201874
0.731537 0.460144 0.207397
0.753571 0.474274 0.213257
0.774078 0.488068 0.219391
0.793060 0.501831 0.225861
0.810791 0.515442 0.232666
0.066528 0.308899 0.155518
0.072968 0.308899 0.155518
0.080200 0.308899 0.155518
0.088531 0.308899 0.155518
0.097839 0.308899 0.155518
0.108429 0.308899 0.155518
0.120239 0.308899 0.155518
0.133453 0.308899 0.155518
0.148102 0.308899 0.155518
0.164185 0.308899 0.155518
0.182007 0.308899 0.155518
0.201355 0.308899 0.155518
0.222534 0.308899 0.155518
0.245514 0.308899 0.155518
0.270416 0.308899 0.155518
0.310455 0.321625 0.158203
0.352905 0.334778 0.161072
0.396240 0.348053 0.164093
0.439545 0.361725 0.167328
0.481628 0.375488 0.170776
0.521484 0.389465 0.174500
0.558533 0.403595 0.178375
0.592957 0.417603 0.182556
0.624969 0.431915 0.186981
0.654663 0.446045 0.191681
0.682220 0.460205 0.196625
0.707794 0.474152 0.201874
0.731537 0.488159 0.207397
0.753571 0.501862 0.213257
0.774078 0.515289 0.219391
0.793060 0.528564 0.225861
0.810791 0.541687 0.232666
0.069641 0.348053 0.158203
0.076416 0.348053 0.158203
0.084229 0.348053 0.158203
0.093018 0.348053 0.158203
0.102997 0.348053 0.158203
0.114136 0.348053 0.158203
0.126587 0.348053 0.158203
0.140564 0.348053 0.158203
0.155945 0.348053 0.158203
0.172943 0.348053 0.158203
0.191498 0.348053 0.158203
0.211761 0.348053 0.158203
0.233856 0.348053 0.158203
0.257751 0.348053 0.158203
0.283417 0.348053 0.158203
0.310455 0.348053 0.158203
0.352905 0.361725 0.161072
0.396240 0.375488 0.164093
0.439545 0.389465 0.167328
0.481628 0.403656 0.170776
0.521484 0.417725 0.174500
0.558533 0.431976 0.178375
0.592957 0.446106 0.182556
0.624969 0.460144 0.186981
0.654663 0.474243 0.191681
0.682220 0.488159 0.196625
0.707794 0.501831 0.201874
0.731537 0.515289 0.207397
0.753571 0.528595 0.213257
0.774078 0.541687 0.219391
0.793060 0.554291 0.225861
0.810791 0.566711 0.232666
0.072968 0.389526 0.161072
0.080200 0.389526 0.161072
0.088531 0.389526 0.161072
0.097870 0.389526 0.161072
0.108429 0.389526 0.161072
0.120270 0.389526 0.161072
0.133453 0.389526 0.161072
0.148102 0.389526 0.161072
0.164276 0.389526 0.161072
0.182007 0.389526 0.161072
0.201416 0.389526 0.161072
0.222565 0.389526 0.161072
0.245636 0.389526 0.161072
0.270447 0.389526 0.161072
0.296875 0.389526 0.161072
0.324432 0.389526 0.161072
0.352905 0.389526 0.161072
0.396240 0.403534 0.164093
0.439545 0.417725 0.167328
0.481628 0.431915 0.170776
0.521484 0.446106 0.174500
0.558533 0.460205 0.178375
0.592957 0.474243 0.182556
0.624969 0.488068 0.186981
0.654663 0.501923 0.191681
0.682220 0.515289 0.196625
0.707794 0.528717 0.201874
0.731537 0.541565 0.207397
0.753571 0.554413 0.213257
0.774078 0.566711 0.219391
0.793060 0.578796 0.225861
0.810791 0.590546 0.232666
0.076447 0.431915 0.164093
0.084229 0.431915 0.164093
0.093018 0.431915 0.164093
0.102997 0.431915 0.164093
0.114166 0.431915 0.164093
0.126678 0.431915 0.164093
0.140625 0.431915 0.164093
0.155914 0.431915 0.164093
0.172882 0.431915 0.164093
0.191437 0.431915 0.164093
0.211731 0.431915 0.164093
0.233826 0.431915 0.164093
0.257751 0.431915 0.164093
0.283386 0.431915 0.164093
0.310455 0.431915 0.164093
0.338531 0.431915 0.164093
0.367218 0.431915 0.164093
0.396240 0.431915 0.164093
0.439545 0.446014 0.167328
0.481628 0.460205 0.170776
0.521484 0.474274 0.174500
0.558533 0.488129 0.178375
0.592957 0.501831 0.182556
0.624969 0.515442 0.186981
0.654663 0.528595 0.191681
0.682220 0.541565 0.196625
0.707794 0.554291 0.201874
0.731537 0.566711 0.207397
0.753571 0.578796 0.213257
0.774078 0.590515 0.219391
0.793060 0.602020 0.225861
0.810791 0.613220 0.232666
0.080200 0.474243 0.167328
0.088531 0.474243 0.167328
0.097870 0.474243 0.167328
0.108429 0.474243 0.167328
0.120270 0.474243 0.167328
0.133453 0.474243 0.167328
0.148071 0.474243 0.167328
0.164246 0.474243 0.167328
0.181946 0.474243 0.167328
0.201385 0.474243 0.167328
0.222504 0.474243 0.167328
0.245575 0.474243 0.167328
0.270447 0.474243 0.167328
0.296844 0.474243 0.167328
0.324432 0.474243 0.167328
0.352814 0.474243 0.167328
0.381714 0.474243 0.167328
0.410675 0.474243 0.167328
0.439545 0.474243 0.167328
0.481628 0.488068 0.170776
0.521484 0.501831 0.174500
0.558533 0.515411 0.178375
0.592957 0.528595 0.182556
0.624969 0.541748 0.186981
0.654663 0.554321 0.191681
0.682220 0.566681 0.196625
0.707794 0.578796 0.201874
0.731537 0.590576 0.207397
0.753571 0.602020 0.213257
0.774078 0.613190 0.219391
0.793060 0.624268 0.225861
0.810791 0.634827 0.232666
0.084229 0.515411 0.170776
0.093048 0.515411 0.170776
0.102997 0.515411 0.170776
0.114166 0.515411 0.170776
0.126678 0.515411 0.170776
0.140625 0.515411 0.170776
0.155914 0.515411 0.170776
0.172943 0.515411 0.170776
0.191528 0.515411 0.170776
0.211761 0.515411 0.170776
0.233887 0.515411 0.170776
0.257751 0.515411 0.170776
0.283417 0.515411 0.170776
0.310455 0.515411 0.170776
0.338531 0.515411 0.170776
0.367340 0.515411 0.170776
0.396240 0.515411 0.170776
0.425201 0.515411 0.170776
0.453705 0.515411 0.170776
0.481628 0.515411 0.170776
0.521484 0.528687 0.174500
0.558533 0.541656 0.178375
0.592957 0.554230 0.182556
0.624969 0.566742 0.186981
0.654663 0.578796 0.191681
0.682220 0.590546 0.196625
0.707794 0.602020 0.201874
0.731537 0.613220 0.207397
0.753571 0.624176 0.213257
0.774078 0.634949 0.219391
0.793060 0.645294 0.225861
0.810791 0.655579 0.232666
0.088531 0.554321 0.174500
0.097870 0.554321 0.174500
0.108429 0.554321 0.174500
0.120270 0.554321 0.174500
0.133453 0.554321 0.174500
0.148102 0.554321 0.174500
0.164276 0.554321 0.174500
0.182037 0.554321 0.174500
0.201355 0.554321 0.174500
0.222534 0.554321 0.174500
0.245636 0.554321 0.174500
0.270477 0.554321 0.174500
0.296783 0.554321 0.174500
0.324371 0.554321 0.174500
0.352814 0.554321 0.174500
0.381714 0.554321 0.174500
0.410767 0.554321 0.174500
0.439575 0.554321 0.174500
0.467773 0.554321 0.174500
0.495239 0.554321 0.174500
0.521484 0.554321 0.174500
0.558533 0.566711 0.178375
0.592957 0.578796 0.182556
0.624969 0.590576 0.186981
0.654663 0.602020 0.191681
0.682220 0.613251 0.196625
0.707794 0.624268 0.201874
0.731537 0.634857 0.207397
0.753571 0.645355 0.213257
0.774078 0.655518 0.219391
0.793060 0.665436 0.225861
0.810791 0.675140 0.232666
0.093018 0.590546 0.178375
0.102997 0.590546 0.178375
0.114166 0.590546 0.178375
0.126678 0.590546 0.178375
0.140564 0.590546 0.178375
0.155914 0.590546 0.178375
0.172882 0.590546 0.178375
0.191437 0.590546 0.178375
0.211731 0.590546 0.178375
0.233826 0.590546 0.178375
0.257660 0.590546 0.178375
0.283325 0.590546 0.178375
0.310394 0.590546 0.178375
0.338593 0.590546 0.178375
0.367249 0.590546 0.178375
0.396301 0.590546 0.178375
0.425201 0.590546 0.178375
0.453766 0.590546 0.178375
0.481628 0.590546 0.178375
0.508514 0.590546 0.178375
0.534149 0.590546 0.178375
0.558533 0.590546 0.178375
0.592957 0.602051 0.182556
0.624969 0.613251 0.186981
0.654663 0.624207 0.191681
0.682220 0.634949 0.196625
0.707794 0.645264 0.201874
0.731537 0.655548 0.207397
0.753571 0.665405 0.213257
0.774078 0.675049 0.219391
0.793060 0.684479 0.225861
0.810791 0.693787 0.232666
0.097870 0.624207 0.182556
0.108398 0.624207 0.182556
0.120239 0.624207 0.182556
0.133484 0.624207 0.182556
0.148102 0.624207 0.182556
0.164246 0.624207 0.182556
0.181976 0.624207 0.182556
0.201355 0.624207 0.182556
0.222504 0.624207 0.182556
0.245636 0.624207 0.182556
0.270447 0.624207 0.182556
0.296844 0.624207 0.182556
0.324371 0.624207 0.182556
0.352783 0.624207 0.182556
0.381622 0.624207 0.182556
0.410767 0.624207 0.182556
0.439545 0.624207 0.182556
0.467773 0.624207 0.182556
0.495148 0.624207 0.182556
0.521362 0.624207 0.182556
0.546509 0.624207 0.182556
0.570282 0.624207 0.182556
0.592957 0.624207 0.182556
0.624969 0.634949 0.186981
0.654663 0.645355 0.191681
0.682220 0.655457 0.196625
0.707794 0.665405 0.201874
0.731537 0.675140 0.207397
0.753571 0.684509 0.213257
0.774078 0.693665 0.219391
0.793060 0.702728 0.225861
0.810791 0.711487 0.232666
0.102997 0.655518 0.186981
0.114166 0.655518 0.186981
0.126678 0.655518 0.186981
0.140564 0.655518 0.186981
0.155914 0.655518 0.186981
0.172882 0.655518 0.186981
0.191437 0.655518 0.186981
0.211823 0.655518 0.186981
0.233887 0.655518 0.186981
0.257812 0.655518 0.186981
0.283508 0.655518 0.186981
0.310486 0.655518 0.186981
0.338531 0.655518 0.186981
0.367218 0.655518 0.186981
0.396240 0.655518 0.186981
0.425140 0.655518 0.186981
0.453705 0.655518 0.186981
0.481689 0.655518 0.186981
0.508606 0.655518 0.186981
0.534180 0.655518 0.186981
0.558563 0.655518 0.186981
0.581757 0.655518 0.186981
0.603912 0.655518 0.186981
0.624969 0.655518 0.186981
0.654663 0.665375 0.191681
0.682220 0.675018 0.196625
0.707794 0.684479 0.201874
0.731537 0.693695 0.207397
0.753571 0.702759 0.213257
0.774078 0.711548 0.219391
0.793060 0.719971 0.225861
0.810791 0.728333 0.232666
0.108429 0.684540 0.191681
0.120300 0.684540 0.191681
0.133453 0.684540 0.191681
0.148102 0.684540 0.191681
0.164276 0.684540 0.191681
0.181976 0.684540 0.191681
0.201385 0.684540 0.191681
0.222626 0.684540 0.191681
0.245514 0.684540 0.191681
0.270447 0.684540 0.191681
0.296875 0.684540 0.191681
0.324371 0.684540 0.191681
0.352905 0.684540 0.191681
0.381775 0.684540 0.191681
0.410706 0.684540 0.191681
0.439545 0.684540 0.191681
0.467865 0.684540 0.191681
0.495148 0.684540 0.191681
0.521484 0.684540 0.191681
0.546509 0.684540 0.191681
0.570251 0.684540 0.191681
0.592957 0.684540 0.191681
0.614594 0.684540 0.191681
0.635040 0.684540 0.191681
0.654663 0.684540 0.191681
0.682220 0.693695 0.196625
0.707794 0.702698 0.201874
0.731537 0.711487 0.207397
0.753571 0.720032 0.213257
0.774078 0.728333 0.219391
0.793060 0.736481 0.225861
0.810791 0.744385 0.232666
0.114166 0.711456 0.196625
0.126678 0.711456 0.196625
0.140625 0.711456 0.196625
0.155975 0.711456 0.196625
0.172882 0.711456 0.196625
0.191437 0.711456 0.196625
0.211761 0.711456 0.196625
0.233856 0.711456 0.196625
0.257812 0.711456 0.196625
0.283508 0.711456 0.196625
0.310394 0.711456 0.196625
0.338501 0.711456 0.196625
0.367218 0.711456 0.196625
0.396240 0.711456 0.196625
0.425201 0.711456 0.196625
0.453796 0.711456 0.196625
0.481537 0.711456 0.196625
0.508423 0.711456 0.196625
0.534119 0.711456 0.196625
0.558533 0.711456 0.196625
0.581757 0.711456 0.196625
0.603912 0.711456 0.196625
0.624908 0.711456 0.196625
0.644928 0.711456 0.196625
0.664032 0.711456 0.196625
0.682220 0.711456 0.196625
0.707794 0.719971 0.201874
0.731537 0.728363 0.207397
0.753571 0.736481 0.213257
0.774078 0.744385 0.219391
0.793060 0.752106 0.225861
0.810791 0.759705 0.232666
0.120270 0.736481 0.201874
0.133484 0.736481 0.201874
0.148071 0.736481 0.201874
0.164276 0.736481 0.201874
0.181976 0.736481 0.201874
0.201416 0.736481 0.201874
0.222504 0.736481 0.201874
0.245636 0.736481 0.201874
0.270325 0.736481 0.201874
0.296844 0.736481 0.201874
0.324341 0.736481 0.201874
0.352814 0.736481 0.201874
0.381622 0.736481 0.201874
0.410706 0.736481 0.201874
0.439453 0.736481 0.201874
0.467773 0.736481 0.201874
0.495270 0.736481 0.201874
0.521454 0.736481 0.201874
0.546509 0.736481 0.201874
0.570251 0.736481 0.201874
0.593018 0.736481 0.201874
0.614502 0.736481 0.201874
0.635101 0.736481 0.201874
0.654572 0.736481 0.201874
0.673248 0.736481 0.201874
0.690918 0.736481 0.201874
0.707794 0.736481 0.201874
0.731537 0.744354 0.207397
0.753571 0.752106 0.213257
0.774078 0.759644 0.219391
0.793060 0.767029 0.225861
0.810791 0.774200 0.232666
0.126678 0.759705 0.207397
0.140656 0.759705 0.207397
0.155914 0.759705 0.207397
0.172913 0.759705 0.207397
0.191528 0.759705 0.207397
0.211731 0.759705 0.207397
0.233826 0.759705 0.207397
0.257812 0.759705 0.207397
0.283508 0.759705 0.207397
0.310455 0.759705 0.207397
0.338531 0.759705 0.207397
0.367340 0.759705 0.207397
0.396210 0.759705 0.207397
0.425140 0.759705 0.207397
0.453796 0.759705 0.207397
0.481537 0.759705 0.207397
0.508423 0.759705 0.207397
0.534149 0.759705 0.207397
