milky.CUBE
#Created by: Adobe Photoshop Export Color Lookup Plugin
TITLE "milky"
#LUT size
LUT_3D_SIZE 8
#data domain
#LUT data points
DOMAIN_MIN 0.000000 0.000000 0.000000
DOMAIN_MAX 0.903226 0.903226 0.903226
0.037384 0.081116 0.130402
0.060913 0.087616 0.136139
0.108429 0.094971 0.142639
0.201385 0.104095 0.150696
0.352905 0.115875 0.161072
0.521484 0.131104 0.174500
0.654663 0.150543 0.191681
0.753571 0.175018 0.213257
0.044067 0.104095 0.136139
0.060913 0.104095 0.136139
0.108429 0.115875 0.142639
0.201385 0.131073 0.150696
0.352905 0.150543 0.161072
0.521484 0.175018 0.174500
0.654663 0.205139 0.191681
0.753571 0.241425 0.213257
0.051575 0.150543 0.142639
0.072968 0.150543 0.142639
0.108429 0.150543 0.142639
0.201385 0.175049 0.150696
0.352905 0.205139 0.161072
0.521484 0.241364 0.174500
0.654663 0.284546 0.191681
0.753571 0.334686 0.213257
0.060913 0.241425 0.150696
0.088501 0.241425 0.150696
0.133484 0.241425 0.150696
0.201385 0.241425 0.150696
0.352905 0.284668 0.161072
0.521484 0.334686 0.174500
0.654663 0.389526 0.191681
0.753571 0.446014 0.213257
0.072968 0.389526 0.161072
0.108429 0.389526 0.161072
0.164276 0.389526 0.161072
0.245636 0.389526 0.161072
0.352905 0.389526 0.161072
0.521484 0.446106 0.174500
0.654663 0.501923 0.191681
0.753571 0.554413 0.213257
0.088531 0.554321 0.174500
0.133453 0.554321 0.174500
0.201355 0.554321 0.174500
0.296783 0.554321 0.174500
0.410767 0.554321 0.174500
0.521484 0.554321 0.174500
0.654663 0.602020 0.191681
0.753571 0.645355 0.213257
0.108429 0.684540 0.191681
0.164276 0.684540 0.191681
0.245514 0.684540 0.191681
0.352905 0.684540 0.191681
0.467865 0.684540 0.191681
0.570251 0.684540 0.191681
0.654663 0.684540 0.191681
0.753571 0.720032 0.213257
0.133453 0.781219 0.213257
0.201385 0.781219 0.213257
0.296783 0.781219 0.213257
0.410675 0.781219 0.213257
0.521545 0.781219 0.213257
0.614594 0.781219 0.213257
0.690979 0.781219 0.213257
0.753571 0.781219 0.213257
0.044067 0.087616 0.150696
0.060913 0.087616 0.150696
0.108429 0.094971 0.161072
0.201385 0.104095 0.174469
0.352905 0.115875 0.191681
0.521484 0.131104 0.213257
0.654663 0.150543 0.239838
0.753571 0.175018 0.271851
0.044067 0.104095 0.150696
0.072968 0.115875 0.161072
0.133453 0.131104 0.174500
0.245575 0.150543 0.191681
0.410767 0.175018 0.213257
0.570282 0.205109 0.239807
0.690979 0.241425 0.271851
0.780548 0.284637 0.309967
0.051575 0.150543 0.161072
0.088531 0.175018 0.174500
0.133453 0.175018 0.174500
0.245575 0.205109 0.191681
0.410767 0.241425 0.213257
0.570282 0.284637 0.239807
0.690979 0.334747 0.271851
0.780548 0.389526 0.309967
0.060913 0.241425 0.174469
0.108429 0.284637 0.191681
0.164246 0.284637 0.191681
0.245575 0.284637 0.191681
0.410767 0.334747 0.213257
0.570282 0.389526 0.239807
0.690979 0.446014 0.271851
0.780548 0.501740 0.309967
0.072968 0.389526 0.191681
0.133453 0.446106 0.213257
0.201385 0.446106 0.213257
0.296844 0.446106 0.213257
0.410767 0.446106 0.213257
0.570282 0.501862 0.239807
0.690979 0.554413 0.271851
0.780548 0.602051 0.309967
0.088531 0.554321 0.213257
0.164246 0.602051 0.239807
0.245575 0.602051 0.239807
0.352905 0.602051 0.239807
0.467804 0.602051 0.239807
0.570282 0.602051 0.239807
0.690979 0.645325 0.271851
0.780548 0.684570 0.309967
0.108429 0.684540 0.239838
0.201385 0.720032 0.271851
0.296844 0.720032 0.271851
0.410675 0.720032 0.271851
0.521545 0.720032 0.271851
0.614563 0.720032 0.271851
0.690979 0.720032 0.271851
0.780548 0.752136 0.309967
0.133453 0.781219 0.271851
0.245575 0.807587 0.309967
0.352905 0.807587 0.309967
0.467682 0.807587 0.309967
0.570282 0.807587 0.309967
0.654694 0.807587 0.309967
0.723816 0.807587 0.309967
0.780548 0.807587 0.309967
0.051575 0.094971 0.191681
0.072968 0.094971 0.191681
0.108429 0.094971 0.191681
0.201385 0.104095 0.213287
0.352905 0.115875 0.239838
0.521484 0.131104 0.271820
0.654663 0.150543 0.309906
0.753571 0.175018 0.354126
0.051575 0.115875 0.191681
0.088531 0.131104 0.213257
0.133453 0.131104 0.213257
0.245575 0.150543 0.239807
0.410767 0.175018 0.271851
0.570282 0.205109 0.309967
0.690979 0.241425 0.354187
0.780548 0.284637 0.402527
0.051575 0.150543 0.191681
0.088531 0.175018 0.213257
0.164246 0.205109 0.239807
0.296844 0.241425 0.271851
0.467804 0.284637 0.309967
0.614563 0.334747 0.354187
0.723816 0.389465 0.402466
0.805054 0.446045 0.452393
0.060913 0.241425 0.213287
0.108429 0.284637 0.239807
0.201385 0.334747 0.271851
0.296844 0.334747 0.271851
0.467804 0.389526 0.309967
0.614563 0.446045 0.354187
0.723816 0.501831 0.402466
0.805054 0.554291 0.452393
0.072968 0.389526 0.239838
0.133453 0.446106 0.271851
0.245575 0.501862 0.309967
0.352905 0.501862 0.309967
0.467804 0.501862 0.309967
0.614563 0.554321 0.354187
0.723816 0.602051 0.402466
0.805054 0.645355 0.452393
0.088531 0.554321 0.271820
0.164246 0.602051 0.309967
0.296844 0.645325 0.354187
0.410706 0.645325 0.354187
0.521484 0.645325 0.354187
0.614563 0.645325 0.354187
0.723816 0.684540 0.402466
0.805054 0.720032 0.452393
0.108429 0.684540 0.309906
0.201385 0.720032 0.354187
0.352814 0.752136 0.402466
0.467773 0.752136 0.402466
0.570282 0.752136 0.402466
0.654663 0.752136 0.402466
0.723816 0.752136 0.402466
0.805054 0.781219 0.452393
0.133453 0.781219 0.354126
0.245575 0.807587 0.402527
0.410706 0.831543 0.452393
0.521454 0.831543 0.452393
0.614594 0.831543 0.452393
0.690979 0.831543 0.452393
0.753571 0.831543 0.452393
0.805054 0.831543 0.452393
0.060913 0.104095 0.271851
0.088501 0.104095 0.271851
0.133484 0.104095 0.271851
0.201385 0.104095 0.271851
0.352905 0.115875 0.309998
0.521484 0.131104 0.354126
0.654663 0.150543 0.402527
0.753571 0.175018 0.452362
0.060913 0.131073 0.271851
0.108429 0.150543 0.309967
0.164246 0.150543 0.309967
0.245575 0.150543 0.309967
0.410767 0.175018 0.354187
0.570282 0.205109 0.402527
0.690979 0.241425 0.452362
0.780548 0.284637 0.501556
0.060913 0.175049 0.271851
0.108429 0.205109 0.309967
0.201385 0.241425 0.354187
0.296844 0.241425 0.354187
0.467804 0.284637 0.402527
0.614563 0.334747 0.452393
0.723816 0.389465 0.501617
0.805054 0.446045 0.547913
0.060913 0.241425 0.271851
0.108429 0.284637 0.309967
0.201385 0.334747 0.354187
0.352814 0.389465 0.402466
0.521484 0.446045 0.452393
0.654663 0.501831 0.501617
0.753571 0.554291 0.547913
0.827332 0.602020 0.589996
0.072968 0.389526 0.309998
0.133453 0.446106 0.354187
0.245575 0.501862 0.402527
0.410706 0.554321 0.452393
0.521484 0.554321 0.452393
0.654663 0.602051 0.501617
0.753571 0.645325 0.547913
0.827332 0.684509 0.589996
0.088531 0.554321 0.354126
0.164246 0.602051 0.402527
0.296844 0.645325 0.452393
0.467773 0.684540 0.501617
0.570282 0.684540 0.501617
0.654663 0.684540 0.501617
0.753571 0.720032 0.547913
0.827332 0.752136 0.589996
0.108429 0.684540 0.402527
0.201385 0.720032 0.452362
0.352814 0.752136 0.501617
0.521454 0.781219 0.547913
0.614563 0.781219 0.547913
0.690979 0.781219 0.547913
0.753571 0.781219 0.547913
0.827332 0.807587 0.589996
0.133453 0.781219 0.452362
0.245575 0.807587 0.501556
0.410706 0.831543 0.547913
0.570251 0.853363 0.589996
0.654633 0.853363 0.589996
0.723816 0.853363 0.589996
0.780548 0.853363 0.589996
0.827332 0.853363 0.589996
0.072968 0.115875 0.402527
0.108429 0.115875 0.402527
0.164276 0.115875 0.402527
0.245636 0.115875 0.402527
0.352905 0.115875 0.402527
0.521484 0.131104 0.452454
0.654663 0.150543 0.501709
0.753571 0.175018 0.548004
0.072968 0.150543 0.402527
0.133453 0.175018 0.452454
0.201385 0.175018 0.452454
0.296844 0.175018 0.452454
0.410767 0.175018 0.452454
0.570282 0.205109 0.501648
0.690979 0.241425 0.548004
0.780548 0.284637 0.590027
0.072968 0.205139 0.402527
0.133453 0.241425 0.452454
0.245575 0.284637 0.501648
0.352905 0.284637 0.501648
0.467804 0.284637 0.501648
0.614563 0.334747 0.547943
0.723816 0.389465 0.590027
0.805054 0.446045 0.628265
0.072968 0.284668 0.402527
0.133453 0.334747 0.452454
0.245575 0.389526 0.501648
0.410706 0.446045 0.547943
0.521484 0.446045 0.547943
0.654663 0.501831 0.590027
0.753571 0.554291 0.628235
0.827332 0.602020 0.662781
0.072968 0.389526 0.402527
0.133453 0.446106 0.452454
0.245575 0.501862 0.501648
0.410706 0.554321 0.547943
0.570282 0.602051 0.590027
0.690979 0.645325 0.628235
0.780548 0.684540 0.662811
0.847687 0.720032 0.694153
0.088531 0.554321 0.452454
0.164246 0.602051 0.501648
0.296844 0.645325 0.547943
0.467773 0.684540 0.590027
0.614563 0.720032 0.628235
0.690979 0.720032 0.628235
0.780548 0.752136 0.662811
0.847687 0.781189 0.694153
0.108429 0.684540 0.501709
0.201385 0.720032 0.548004
0.352814 0.752136 0.590027
0.521454 0.781219 0.628235
0.654663 0.807587 0.662811
0.723816 0.807587 0.662811
0.780548 0.807587 0.662811
0.847687 0.831573 0.694153
0.133453 0.781219 0.548004
0.245575 0.807587 0.590027
0.410706 0.831543 0.628265
0.570251 0.853363 0.662781
0.690979 0.873230 0.694153
0.753540 0.873230 0.694153
0.805084 0.873230 0.694153
0.847687 0.873230 0.694153
0.088531 0.131104 0.547943
0.133453 0.131104 0.547943
0.201355 0.131104 0.547943
0.296783 0.131104 0.547943
0.410767 0.131104 0.547943
0.521484 0.131104 0.547943
0.654663 0.150543 0.589996
0.753571 0.175018 0.628265
0.088531 0.175018 0.547943
0.164246 0.205109 0.590027
0.245575 0.205109 0.590027
0.352905 0.205109 0.590027
0.467804 0.205109 0.590027
0.570282 0.205109 0.590027
0.690979 0.241425 0.628235
0.780548 0.284637 0.662842
0.088531 0.241364 0.547943
0.164246 0.284637 0.590027
0.296844 0.334747 0.628235
0.410706 0.334747 0.628235
0.521484 0.334747 0.628235
0.614563 0.334747 0.628235
0.723816 0.389465 0.662811
0.805054 0.446045 0.694153
0.088531 0.334686 0.547943
0.164246 0.389526 0.590027
0.296844 0.446045 0.628235
0.467773 0.501831 0.662811
0.570282 0.501831 0.662811
0.654663 0.501831 0.662811
0.753571 0.554291 0.694153
0.827332 0.602020 0.722473
0.088531 0.446106 0.547943
0.164246 0.501862 0.590027
0.296844 0.554321 0.628235
0.467773 0.602051 0.662811
0.614563 0.645325 0.694153
0.690979 0.645325 0.694153
0.780548 0.684540 0.722473
0.847687 0.720032 0.748108
0.088531 0.554321 0.547943
0.164246 0.602051 0.590027
0.296844 0.645325 0.628235
0.467773 0.684540 0.662811
0.614563 0.720032 0.694153
0.723816 0.752136 0.722473
0.805054 0.781219 0.748138
0.866425 0.807587 0.771393
0.108429 0.684540 0.589996
0.201385 0.720032 0.628235
0.352814 0.752136 0.662811
0.521454 0.781219 0.694153
0.654663 0.807587 0.722473
0.753571 0.831543 0.748138
0.805054 0.831543 0.748138
0.866425 0.853363 0.771393
0.133453 0.781219 0.628265
0.245575 0.807587 0.662842
0.410706 0.831543 0.694153
0.570251 0.853363 0.722473
0.690979 0.873230 0.748108
0.780548 0.891571 0.771393
0.827332 0.891571 0.771393
0.866425 0.891571 0.771393
0.108429 0.150543 0.662811
0.164276 0.150543 0.662811
0.245514 0.150543 0.662811
0.352905 0.150543 0.662811
0.467865 0.150543 0.662811
0.570251 0.150543 0.662811
0.654663 0.150543 0.662811
0.753571 0.175018 0.694153
0.108429 0.205139 0.662811
0.201385 0.241425 0.694153
0.296844 0.241425 0.694153
0.410675 0.241425 0.694153
0.521545 0.241425 0.694153
0.614563 0.241425 0.694153
0.690979 0.241425 0.694153
0.780548 0.284637 0.722473
0.108429 0.284546 0.662811
0.201385 0.334747 0.694153
0.352814 0.389465 0.722473
0.467773 0.389465 0.722473
0.570282 0.389465 0.722473
0.654663 0.389465 0.722473
0.723816 0.389465 0.722473
0.805054 0.446045 0.748138
0.108429 0.389526 0.662811
0.201385 0.446014 0.694153
0.352814 0.501831 0.722473
0.521454 0.554291 0.748138
0.614563 0.554291 0.748138
0.690979 0.554291 0.748138
0.753571 0.554291 0.748138
0.827332 0.602020 0.771393
0.108429 0.501923 0.662811
0.201385 0.554413 0.694153
0.352814 0.602051 0.722473
0.521454 0.645325 0.748138
0.654663 0.684540 0.771393
0.723816 0.684540 0.771393
0.780548 0.684540 0.771393
0.847687 0.720032 0.792572
0.108429 0.602020 0.662811
0.201385 0.645325 0.694153
0.352814 0.684540 0.722473
0.521454 0.720032 0.748138
0.654663 0.752136 0.771393
0.753571 0.781219 0.792542
0.805054 0.781219 0.792542
0.866425 0.807587 0.811768
0.108429 0.684540 0.662811
0.201385 0.720032 0.694153
0.352814 0.752136 0.722473
0.521454 0.781219 0.748138
0.654663 0.807587 0.771393
0.753571 0.831543 0.792542
0.827332 0.853363 0.811768
0.883850 0.873230 0.829315
0.133453 0.781219 0.694153
0.245575 0.807587 0.722473
0.410706 0.831543 0.748138
0.570251 0.853363 0.771393
0.690979 0.873230 0.792572
0.780548 0.891571 0.811768
0.847687 0.908600 0.829315
0.883850 0.908600 0.829315
0.133453 0.175018 0.748138
0.201385 0.175018 0.748138
0.296783 0.175018 0.748138
0.410675 0.175018 0.748138
0.521545 0.175018 0.748138
0.614594 0.175018 0.748138
0.690979 0.175018 0.748138
0.753571 0.175018 0.748138
0.133453 0.241425 0.748138
0.245575 0.284637 0.771393
0.352905 0.284637 0.771393
0.467682 0.284637 0.771393
0.570282 0.284637 0.771393
0.654694 0.284637 0.771393
0.723816 0.284637 0.771393
0.780548 0.284637 0.771393
0.133453 0.334686 0.748138
0.245575 0.389526 0.771393
0.410706 0.446045 0.792542
0.521454 0.446045 0.792542
0.614594 0.446045 0.792542
0.690979 0.446045 0.792542
0.753571 0.446045 0.792542
0.805054 0.446045 0.792542
0.133453 0.446014 0.748138
0.245575 0.501740 0.771393
0.410706 0.554291 0.792542
0.570251 0.602020 0.811768
0.654633 0.602020 0.811768
0.723816 0.602020 0.811768
0.780548 0.602020 0.811768
0.827332 0.602020 0.811768
0.133453 0.554413 0.748138
0.245575 0.602051 0.771393
0.410706 0.645355 0.792542
0.570251 0.684509 0.811768
0.690979 0.720032 0.829315
0.753540 0.720032 0.829315
0.805084 0.720032 0.829315
0.847687 0.720032 0.829315
0.133453 0.645355 0.748138
0.245575 0.684570 0.771393
0.410706 0.720032 0.792542
0.570251 0.752136 0.811768
0.690979 0.781189 0.829315
0.780548 0.807587 0.845490
0.827332 0.807587 0.845490
0.866425 0.807587 0.845490
0.133453 0.720032 0.748138
0.245575 0.752136 0.771393
0.410706 0.781219 0.792542
0.570251 0.807587 0.811768
0.690979 0.831573 0.829315
0.780548 0.853363 0.845490
0.847687 0.873230 0.860504
0.883850 0.873230 0.860504
0.133453 0.781219 0.748138
0.245575 0.807587 0.771393
0.410706 0.831543 0.792542
0.570251 0.853363 0.811768
0.690979 0.873230 0.829315
0.780548 0.891571 0.845490
0.847687 0.908600 0.860504
0.900116 0.924500 0.874542
