milky.CUBE
#Created by: Adobe Photoshop Export Color Lookup Plugin
TITLE "milky"
#LUT size
LUT_3D_SIZE 5
#data domain
#LUT data points
DOMAIN_MIN 0.000000 0.000000 0.000000
DOMAIN_MAX 0.903226 0.903226 0.903226
0.037384 0.081116 0.130402
0.093018 0.092957 0.140869
0.270416 0.109589 0.155518
0.558533 0.135498 0.178375
0.753571 0.175018 0.213257
0.049530 0.135498 0.140869
0.093018 0.135498 0.140869
0.270416 0.175018 0.155518
0.558533 0.231689 0.178375
0.753571 0.308960 0.213257
0.066528 0.308899 0.155518
0.133453 0.308899 0.155518
0.270416 0.308899 0.155518
0.558533 0.403595 0.178375
0.753571 0.501862 0.213257
0.093018 0.590546 0.178375
0.191437 0.590546 0.178375
0.367249 0.590546 0.178375
0.558533 0.590546 0.178375
0.753571 0.665405 0.213257
0.133453 0.781219 0.213257
0.270447 0.781219 0.213257
0.467804 0.781219 0.213257
0.635101 0.781219 0.213257
0.753571 0.781219 0.213257
0.049530 0.092957 0.178375
0.093018 0.092957 0.178375
0.270416 0.109589 0.213257
0.558533 0.135498 0.263275
0.753571 0.175018 0.331421
0.049530 0.135498 0.178375
0.133453 0.175018 0.213257
0.367218 0.231689 0.263275
0.635101 0.308899 0.331390
0.799103 0.403534 0.414886
0.066528 0.308899 0.213257
0.191437 0.403534 0.263275
0.367218 0.403534 0.263275
0.635101 0.501831 0.331390
0.799103 0.590515 0.414886
0.093018 0.590546 0.263275
0.270416 0.665405 0.331390
0.467773 0.665405 0.331390
0.635101 0.665405 0.331390
0.799103 0.728333 0.414886
0.133453 0.781219 0.331421
0.367218 0.825745 0.414886
0.558472 0.825745 0.414886
0.699463 0.825745 0.414886
0.799103 0.825745 0.414886
0.066528 0.109589 0.331390
0.133453 0.109589 0.331390
0.270416 0.109589 0.331390
0.558533 0.135498 0.414917
0.753571 0.175018 0.501648
0.066528 0.175018 0.331390
0.191437 0.231689 0.414886
0.367218 0.231689 0.414886
0.635101 0.308899 0.501617
0.799103 0.403534 0.579865
0.066528 0.308899 0.331390
0.191437 0.403534 0.414886
0.467773 0.501831 0.501617
0.699463 0.590546 0.579895
0.837769 0.665375 0.645905
0.093018 0.590546 0.414917
0.270416 0.665405 0.501617
0.558533 0.728333 0.579895
0.699463 0.728333 0.579895
0.837769 0.781189 0.645905
0.133453 0.781219 0.501648
0.367218 0.825745 0.579865
0.635040 0.863525 0.645905
0.753540 0.863525 0.645905
0.837769 0.863525 0.645905
0.093018 0.135498 0.579895
0.191437 0.135498 0.579895
0.367249 0.135498 0.579895
0.558533 0.135498 0.579895
0.753571 0.175018 0.645935
0.093018 0.231689 0.579895
0.270416 0.308899 0.645935
0.467773 0.308899 0.645935
0.635101 0.308899 0.645935
0.799103 0.403534 0.701477
0.093018 0.403595 0.579895
0.270416 0.501831 0.645935
0.558533 0.590546 0.701477
0.699463 0.590546 0.701477
0.837769 0.665375 0.748108
0.093018 0.590546 0.579895
0.270416 0.665405 0.645935
0.558533 0.728333 0.701477
0.753571 0.781219 0.748138
0.870941 0.825745 0.787415
0.133453 0.781219 0.645935
0.367218 0.825745 0.701477
0.635040 0.863525 0.748108
0.799103 0.895966 0.787415
0.870941 0.895966 0.787415
0.133453 0.175018 0.748138
0.270447 0.175018 0.748138
0.467804 0.175018 0.748138
0.635101 0.175018 0.748138
0.753571 0.175018 0.748138
0.133453 0.308960 0.748138
0.367218 0.403534 0.787415
0.558472 0.403534 0.787415
0.699463 0.403534 0.787415
0.799103 0.403534 0.787415
0.133453 0.501862 0.748138
0.367218 0.590515 0.787415
0.635040 0.665375 0.820740
0.753540 0.665375 0.820740
0.837769 0.665375 0.820740
0.133453 0.665405 0.748138
0.367218 0.728333 0.787415
0.635040 0.781189 0.820740
0.799103 0.825745 0.849365
0.870941 0.825745 0.849365
0.133453 0.781219 0.748138
0.367218 0.825745 0.787415
0.635040 0.863525 0.820740
0.799103 0.895966 0.849365
0.900116 0.924500 0.874542
